/* XPM */
static const char *weather_storm_xpm[] = {
/* columns rows colors chars-per-pixel */
"32 32 10 1 ",
"  c #5E5C64",
". c #605E66",
"X c #6D6C72",
"o c #DED87F",
"O c #E5DF79",
"+ c #F5ED6E",
"@ c #7F7E82",
"# c #8C8C8F",
"$ c #CDC98B",
"% c None",
/* pixels */
"%%%%%%%%%%%%%%%%%XXXX%%%%%%%%%%%",
"%%%%%%%%%%%%%%%#      #%%%%%%%%%",
"%%%%%%%%%%%%%%%        %%%%%%%%%",
"%%%%%%%%%%%%%%X        X%%%%%%%%",
"%%%%%%%%%%XXXX.        .%%%%%%%%",
"%%%%%%%%X              .%%%%%%%%",
"%%%%%%%X               .@%%%%%%%",
"%%%%%%%                  .#%%%%%",
"%%%%%%X                   .%%%%%",
"%%%%%%X                    X%%%%",
"%%#XXX.                    .%%%%",
"%X                         .%%%%",
"#              @%%#.       .XX#%",
"X             #%%%%#           #",
"X             %%OO%%           X",
"@             %%++%%           X",
"%.            %%++%%           #",
"%%X.          %%++%%         .@%",
"%%%%%%%%%%%%%%%%++%%%%%%%%%%%%%%",
"%%%%%%%%%%%%%%%%++%%%%%%%%%%%%%%",
"%%%%%%%%%%++++++++%%%%%%%%%%%%%%",
"%%%%%%%%%%++++++++%%%%%%%%%%%%%%",
"%%%%%%O+++++%%%%++%%%%%%%%%%%%%%",
"%%%%%O++++++%%%%O+O%%%%%%%%%%%%%",
"%%%%O+O%%%++%%%%%O+O%%%%%%%%%%%%",
"%%%O+O%%%%++%%%%%%O+O%%%%%%%%%%%",
"%%O+O%%%%%++%%%%%%%O++++++%%%%%%",
"%O+O%%%%%%++%%%%%%%%+++++++o%%%%",
"%OO%%%%%%%++%%%%%%%%++%%%$+++$%%",
"%%%%%%%%%%++%%%%%%%%++%%%%%o++O%",
"%%%%%%%%%%OO%%%%%%%%OO%%%%%%%OO%",
"%%%%%%%%%%%%%%%%%%%%%%%%%%%%%%%%"
};
