/* XPM */
static const char *weather_clear[] = {
/* columns rows colors chars-per-pixel */
"32 32 10 1 ",
"  c #F5D32E",
". c #C6B878",
"X c #E5C948",
"o c #D4C062",
"O c #B4AE93",
"+ c #B3AE94",
"@ c #B5B090",
"# c #A7A7A7",
"$ c #A8A7A5",
"% c #A9A8A5",
/* pixels */
"##############X  X##############",
"##############    ##############",
"##############    ##############",
"#####+O#######    #######O+#####",
"####@  .######    ######.  @####",
"###+    .#####X  X#####.    +###",
"###O     .############.     O###",
"####.     ############     .####",
"#####.   .##O.X  X.O##.   .#####",
"######. .#$.        o%#. .######",
"#########$X          X%%########",
"#########o            o$########",
"####$%##O              O########",
"####$$##.              .########",
"X    X##X              X##X    X",
"      $#                ##      ",
"      ##                ##      ",
"X    X##X              X##X    X",
"########.              .########",
"########O              O########",
"#########o            o#########",
"#########%X          X%$########",
"######. .#%o        o%$. .######",
"#####.   .##OoX  X.O##.   .#####",
"####.     ######$#####     .####",
"###O     .######%#####.     O###",
"###+    .#####X  X#####.    +###",
"####@  .######    ######.  @####",
"#####+O#######    #######O+#####",
"##############    ##############",
"##############    ##############",
"##############X  X##############"
};
