/* XPM */
static const char *weather_snow_xpm[] = {
/* columns rows colors chars-per-pixel */
"32 32 8 1 ",
"  c #9EB8D8",
". c #A1B3C8",
"X c #9CBCE3",
"o c #9BBEE8",
"O c #9ABFEC",
"+ c #9AC0ED",
"@ c #99C1F1",
"# c None",
/* pixels */
"################################",
"##############XX################",
"##############@@################",
"##############@@##.#############",
"##########+@X#@@#X@+############",
"###########O@@@@@@O#############",
"######oO####.+@@+.####OO########",
"######+@######@@######+@########",
"##OX##+@######@@######+@##Xo####",
"##O@@ +@######@@######+@ @@o####",
"###.+@@@######@@######+@@+.#####",
"####.@@@O.####@@#####o@@@.######",
"### @@oX@@X###@@###X@@XX@@X#####",
"##O@O.##.O@@ #@@# @@O.##.O@+####",
"##. ###### +@O@@O@+ ######..####",
"############ @@@@X##############",
"############X@@@@X##############",
"##. ###### @@O@@O@+ ######..####",
"##O@O.##.O@@ #@@# @@O.##.O@+####",
"### @@oX@@X###@@###X@@XX@@X#####",
"####.@@@o#####@@#####O@@@.######",
"###.+@@@######@@######+@@+.#####",
"##o@@ +@######@@######+@ @@o####",
"##OX##+@######@@######+@##Xo####",
"######+@######@@######+@########",
"######oO####.O@@O.####OO########",
"###########o@@@@@@o#############",
"##########+@o#@@#o@O############",
"##########..##@@##..############",
"##############@@################",
"##############XX################",
"################################"
};
