/* XPM */
static const char *weather_showers[] = {
/* columns rows colors chars-per-pixel */
"32 32 11 1 ",
"  c #7F9BBD",
". c #3E87DF",
"X c #3684E4",
"o c #508CD6",
"O c #6A94C8",
"+ c #9A9996",
"@ c #A09F9E",
"# c #849CBA",
"$ c #9BA3AE",
"% c #A2A1A0",
"& c #A7A7A7",
/* pixels */
"&&&&&&&&&&&&&&&&%++++%&&&&&&&&&&",
"&&&&&&&&&&&&&&&@++++++%&&&&&&&&&",
"&&&&&&&&&&&&&&%++++++++&&&&&&&&&",
"&&&&&&&&&&&&&&+++++++++@&&&&&&&&",
"&&&&&&&&&%++++++++++++++&&&&&&&&",
"&&&&&&&&++++++++++++++++&&&&&&&&",
"&&&&&&&++++++++++++++++++&&&&&&&",
"&&&&&&%+++++++++++++++++++%&&&&&",
"&&&&&&+++++++++++++++++++++&&&&&",
"&&&&&&+++++++++++++++++++++@&&&&",
"&&@+++++++++++++++++++++++++&&&&",
"&+++++++++++++++++++++++++++&&&&",
"@+++++++++++++++++++++++++++++%&",
"+++++++++++++++++++++++++++++++%",
"++++++++++++++++++++++++++++++++",
"@+++++++++++++++++++++++++++++++",
"&++++++++++++++++++++++++++++++%",
"&&@+++++++++++++++++++++++++++%&",
"&&&&&&&&&&&&&&&&&&&&&&&&&&&&&&&&",
"&&&&&&&&&&&&&&&&&&&&&&&&&&&&&&&&",
"&&&&oo&&oo&&oo&&oo&&oo&&oo&&&&&&",
"&&&$Xo&$X.&$Xo&$Xo&$X.&$X.&&&&&&",
"&&&#Xo&#Xo&#Xo&#Xo&#Xo&#Xo&&&&&&",
"&&&OXO&OXO&OXO&OXO&OXO&OXO&&&&&&",
"&&&oX#&oX#&oX#&oX#&oX#&oX#&&&&&&",
"&&&.X$&.X$&.X$&.X$&.X$&.X$&&&&&&",
"&&$Xo&$Xo&$Xo&$Xo&$Xo&$Xo&&&&&&&",
"&& Xo&#Xo& Xo&#Xo&#Xo&#Xo&&&&&&&",
"&&OXO&OXO&OXO&OXO&OXO&OXO&&&&&&&",
"&&oX#&oX#&oX#&oX#&oX#&oX#&&&&&&&",
"&&.X$&.X$&.X$&.X$&.X$&.X$&&&&&&&",
"&&OO&&OO&&OO&&OO&&OO&&OO&&&&&&&&"
};
