/* XPM */
static const char *weather_few_clouds_xpm[] = {
/* columns rows colors chars-per-pixel */
"32 32 9 1 ",
"  c #F5D32E",
". c #C5B878",
"X c #D8C25C",
"o c #E5CA46",
"O c #D4C061",
"+ c #BAB28A",
"@ c #C1C1BF",
"# c #DCDBD8",
"$ c None",
/* pixels */
"$$$$$$$$$$$$$$$$$$$$$$$$$$$$$$$$",
"$$$$$$$$$$$$$$$$$$$$$$$$$$$$$$$$",
"$$$$$$$$$$$$o  o$$$$$$$$$$$$$$$$",
"$$$$$$$$$$$$    $$$$$$$$$$$$$$$$",
"$$$$$$$$$$$$    $$$$$$$$$$$$$$$$",
"$$$$+o.$$$$$o  o$$$$$.o.$$$$$$$$",
"$$$+   .$$$$$$$$$$$$.   +$$$$$$$",
"$$$o    $$$$$$$$$$$$    o$$$$$$$",
"$$$.   .$$$.o  o.$$$.   .$$$$$$$",
"$$$$. .$$O        .$$. .$$$$$$$$",
"$$$$$$$$o          X$$$$$$$$$$$$",
"$$$$$$$O            .$$$$$$$$$$$",
"$$$$$$$              $$$$$$$$$$$",
"$$$$$$O              .$$$$$$$$$$",
"o  o$$               o$$o  o$$$$",
"    $$                $$    $$$$",
"    $$                $$    $$$$",
"o  o$$               o$$o  o$$$$",
"$$$$$$O         X.$$++$$$$$$$$$$",
"$$$$$$$       o$$$$$$$$$$$$$$$$$",
"$$$$$$$O     o$$$####$$$$$$$$$$$",
"$$$$$$$$o    $$#######@$$$$$$$$$",
"$$$$. .$$O  X$$############$$$$$",
"$$$.   .$$$O+$##############$$$$",
"$$$o    $$$$$$###############$$$",
"$$$+   .$$$$$$###############$$$",
"$$$$+o.$$$$####################$",
"$$$$$$$$$$######################",
"$$$$$$$$$$######################",
"$$$$$$$$$$######################",
"$$$$$$$$$$######################",
"$$$$$$$$$$$####################$"
};
