/* XPM */
static const char *weather_fog[] = {
/* columns rows colors chars-per-pixel */
"32 32 6 1 ",
"  c #A7A8AA",
". c #A2B0C1",
"X c #A1B1C6",
"o c #A0B3CA",
"O c #A0B3CB",
"+ c #A0B3CC",
/* pixels */
"                                ",
"                                ",
"     X+o       oo       Xo.     ",
"    ++++o    Xoo+o.    ooooo    ",
"   Xoo++o+  .ooo++o   ooooooX   ",
"  Xooo++ooo.oo++++oo oooooooo.  ",
" Xoo+o oo+oooo+.o+++++ooo.ooooX ",
"Xoooo   ++ooooX  o++++oo  Xoooo.",
"Xooo.    ++++o    ooooo    Xooo.",
" Xo       Xo.      .oX       oX ",
"                                ",
"                                ",
"     .oX       oo       oo.     ",
"    o+ooo    Xoo++.    ooooX    ",
"   X++++oo  .ooo+++   ooooooX   ",
"  Xo+oo+++o.oooo++++ ooooooo+.  ",
" Xo+++ oooo+++o.Xoooo+o+o ooooX ",
"Xooo+.  oooo++X  ooooo++  Xoooo.",
"XoooX    ooo+o    oo++o    oo++.",
" Xo       Xo.      .oX       oX ",
"                                ",
"                                ",
"     .oX       oo       Xo      ",
"    ooooo    Xoooo.    ooooX    ",
"   Xoo++++  .oooooo   ++++++X   ",
"  Xooo++++o.oooooooo o++++++o.  ",
" ooooo o++ooooo.X+ooooooo.++ooX ",
"Xoooo   +oooooX  o++oooo  X+oo+.",
"Xo+o.    ++++o    ooooo    Xooo.",
" Xo       Xo.      XoX       oX ",
"                                ",
"                                "
};
