/* XPM */
static const char *weather_clear_night[] = {
/* columns rows colors chars-per-pixel */
"32 32 3 1 ",
"  c #BCBEC5",
". c #EDEDF4",
"X c None",
/* pixels */
"XXXXXXXXXXXXXXXXXXXXXXXXXXXXXXXX",
"XXXXXXXXXXXXXXXXXXXXXXXXXXXXXXXX",
"XXXXXXXXXXX   XXXXXXXXXXXXXXXXXX",
"XXXXXXXXX ...XXXXXXXXXXXXXXXXXXX",
"XXXXXXXX.....XXXXXXXXXXXXXXXXXXX",
"XXXXXX ..... XXXXXXXXXXXXXXXXXXX",
"XXXXX ...... XXXXXXXXXXXXXXXXXXX",
"XXXXX.......XXXXXXXXXXXXXXXXXXXX",
"XXXX........XXXXXXXXXXXXXXXXXXXX",
"XXX ........XXXXXXXXXXXXXXXXXXXX",
"XXX.........XXXXXXXXXXXXXXXXXXXX",
"XX .........XXXXXXXXXXXXXXXXXXXX",
"XX.......... XXXXXXXXXXXXXXXXXXX",
"XX.......... XXXXXXXXXXXXXXXXXXX",
"XX...........XXXXXXXXXXXXXXXXXXX",
"XX...........XXXXXXXXXXXXXXXXXXX",
"XX........... XXXXXXXXXXXXXXXXXX",
"XX............XXXXXXXXXXXXXXXXXX",
"XX............ XXXXXXXXXXXXXXXXX",
"XX ............ XXXXXXXXXXXXXXXX",
"XX .............XXXXXXXXXXXXXXXX",
"XXX..............XXXXXXXXXXXXXXX",
"XXX ..............XXXXXXXXXXXXXX",
"XXXX............... XXXXXXXXXXXX",
"XXXXX............... XXXXXXXXXXX",
"XXXXX ................ XXXXXXXXX",
"XXXXXX ..................XXXXXXX",
"XXXXXXXX................XXXXXXXX",
"XXXXXXXXX ............ XXXXXXXXX",
"XXXXXXXXXXX  ......  XXXXXXXXXXX",
"XXXXXXXXXXXXXXXXXXXXXXXXXXXXXXXX",
"XXXXXXXXXXXXXXXXXXXXXXXXXXXXXXXX"
};
