/* XPM */
static const char *weather_overcast_xpm[] = {
/* columns rows colors chars-per-pixel */
"32 32 8 1 ",
"  c #C0C0BE",
". c #D5D4D2",
"X c #D8D7D5",
"o c #DAD9D7",
"O c #DBDAD8",
"+ c #DCDBD8",
"@ c #DEDDDA",
"# c None",
/* pixels */
"################################",
"################################",
"################################",
"################################",
"#################.+o.###########",
"###############.@@@@@@.#########",
"###############@@@@@@@@#########",
"##############.@@@@@@@@.########",
"##########.++.+@@@@@@@@o########",
"########.@@@@@@@@@@@@@@o########",
"#######.@@@@@@@@@@@@@@@@.#######",
"#######@@@@@@@@@@@@@@@@@@@ #####",
"######.@@@@@@@@@@@@@@@@@@@@#####",
"######o@@@@@@@@@@@@@@@@@@@@.####",
"##.oo.@@@@@@@@@@@@@@@@@@@@@O####",
"#o@@@@@@@@@@@@@@@@@@@@@@@@@o####",
".@@@@@@@@@@@@o.####.@@@@@@@oXX.#",
"o@@@@@@@@@@@.########X@@@@@@@@@.",
"o@@@@@@@@@@.###.oo.######.@@@@@X",
".@@@@@@@@@+##.@@@@@@ ##### @@@@X",
"#o@@@@@@@@.##@@@@@@@@.o+.##.+@@.",
"##.o@@@@@@##.@@@@@@@@@@@@o##oX.#",
"############O@@@@@@@@@@@@+.#####",
"############o@@@@@@@@@@@++o#####",
"#########.XX+@@@@@@@@@@@@@@X.###",
"########.@@@@@@@@@@@@@@@@@@@@.##",
"########X@@@@@@@@@@@@@@@@@@@@X##",
"########X@@@@@@@@@@@@@@@@@@@@X##",
"########.++++@@@@@@@@@@@@@@@@.##",
"#########.X@@@@@@@@@@@@@@@@X.###",
"################################",
"################################"
};
