/* XPM */
static const char *weather_few_clouds_night[] = {
/* columns rows colors chars-per-pixel */
"32 32 3 1 ",
"  c #BBBCC5",
". c #E4E3E6",
"X c None",
/* pixels */
"XXXXXXXXXXXXXXXXXXXXXXXXXXXXXXXX",
"XXXXXXXXXXXXXXXXXXXXXXXXXXXXXXXX",
"XXXXXXXXXXX . XXXXXXXXXXXXXXXXXX",
"XXXXXXXXX ...XXXXXXXXXXXXXXXXXXX",
"XXXXXXXX.....XXXXXXXXXXXXXXXXXXX",
"XXXXXX ......XXXXXXXXXXXXXXXXXXX",
"XXXXX ...... XXXXXXXXXXXXXXXXXXX",
"XXXXX.......XXXXXXXXXXXXXXXXXXXX",
"XXXX........XXXXXXXXXXXXXXXXXXXX",
"XXX.........XXXXXXXXXXXXXXXXXXXX",
"XXX.........XXXXXXXXXXXXXXXXXXXX",
"XX ......... XXXXXXXXXXXXXXXXXXX",
"XX.......... XXXXXXXXXXXXXXXXXXX",
"XX...........XXXXXXXXXXXXXXXXXXX",
"XX...........XXXXXXXXXXXXXXXXXXX",
"XX...........XXXXXXXXXXXXXXXXXXX",
"XX............XXXXXXXXXXXXXXXXXX",
"XX............XXXXXXXXXXXXXXXXXX",
"XX.............XXXXXXXXXXXXXXXXX",
"XX............ XXXXXXXXXXXXXXXXX",
"XX .......... XX  ... XXXXXXXXXX",
"XXX..........XX ...... XXXXXXXXX",
"XXX.........XX ........ ...XXXXX",
"XXXX........XX .............XXXX",
"XXXXX...... XX.............. XXX",
"XXXXX ... XXXX...............XXX",
"XXXXXX . XX .................. X",
"XXXXXXXXXX .................... ",
"XXXXXXXXXX......................",
"XXXXXXXXXX......................",
"XXXXXXXXXX .................... ",
"XXXXXXXXXXX .................. X"
};
