/* XPM */
static const char *weather_clear[] = {
/* columns rows colors chars-per-pixel */
"64 64 10 1 ",
"  c #F6D32E",
". c #CCBB6E",
"X c #D9C25B",
"o c #E2C84B",
"O c #D4C061",
"+ c #B7B08E",
"@ c #A7A7A7",
"# c #AAA8A3",
"$ c #A9A8A4",
"% c #C0B580",
/* pixels */
"@@@@@@@@@@@@@@@@@@@@@@@@@@@@+      +@@@@@@@@@@@@@@@@@@@@@@@@@@@@",
"@@@@@@@@@@@@@@@@@@@@@@@@@@@@        @@@@@@@@@@@@@@@@@@@@@@@@@@@@",
"@@@@@@@@@@@@@@@@@@@@@@@@@@@@        @@@@@@@@@@@@@@@@@@@@@@@@@@@@",
"@@@@@@@@@@@@@@@@@@@@@@@@@@@@        @@@@@@@@@@@@@@@@@@@@@@@@@@@@",
"@@@@@@@@@@@@@@@@@@@@@@@@@@@@        @@@@@@@@@@@@@@@@@@@@@@@@@@@@",
"@@@@@@@@@@@@@@@@@@@@@@@@@@@@        @@@@@@@@@@@@@@@@@@@@@@@@@@@@",
"@@@@@@@@@@@@@@@@@@@@@@@@@@@@        @@@@@@@@@@@@@@@@@@@@@@@@@@@@",
"@@@@@@@@@@$..+@@@@@@@@@@@@@@        @@@@@@@@@@@@@@+..$@@@@@@@@@@",
"@@@@@@@@@$o   +@@@@@@@@@@@@@        @@@@@@@@@@@@@+   o#@@@@@@@@@",
"@@@@@@@@$o     +@@@@@@@@@@@@        @@@@@@@@@@@@+     o#@@@@@@@@",
"@@@@@@@$o       +@@@@@@@@@@@        @@@@@@@@@@@+       o$@@@@@@@",
"@@@@@@@.         +@@@@@@@@@@+      +@@@@@@@@@@+         .@@@@@@@",
"@@@@@@@.          +@@@@@@@@@@@@@@@@@@@@@@@@@@+          O@@@@@@@",
"@@@@@@@+           +@@@@@@@@@@@@@@@@@@@@@@@@+           +@@@@@@@",
"@@@@@@@@+          o@@@@@@@@@@@@@@@@@@@@@@@@o          +@@@@@@@@",
"@@@@@@@@@+         o@@@@@@@@@@@@@@@@@@@@@@@@o         +@@@@@@@@@",
"@@@@@@@@@@+        +@@@@@@#%Oo    oO%#@@@@@@+        +@@@@@@@@@@",
"@@@@@@@@@@@+      +@@@@@+O            .#@@@@@+      +@@@@@@@@@@@",
"@@@@@@@@@@@@+    +@@@@@.                .$@@@@+    +@@@@@@@@@@@@",
"@@@@@@@@@@@@@+oo+@@@@#o                  o#@@@@+oo+@@@@@@@@@@@@@",
"@@@@@@@@@@@@@@@@@@@@+                      +@@@@@@@@@@@@@@@@@@@@",
"@@@@@@@@@@@@@@@@@@@#                        #@@@@@@@@@@@@@@@@@@@",
"@@@@@@@@@@@@@@@@@@$o                        o$@@@@@@@@@@@@@@@@@@",
"@@@@@@@@@@@@@@@@@@.                          .@@@@@@@@@@@@@@@@@@",
"@@@@@@@@@@@@@@@@@+                            +@@@@@@@@@@@@@@@@@",
"@@@@@@@@@@@@@@@@@O                            O@@@@@@@@@@@@@@@@@",
"@@@@@@@@@@@@@@@@#                              #@@@@@@@@@@@@@@@@",
"@@@@@@@@@@@@@@@@.                              %@@@@@@@@@@@@@@@@",
"+          +@@@@O                              O@@@@+          +",
"            @@@@o                              o@@@@            ",
"            @@@@                                @@@@            ",
"            @@@@                                @@@@            ",
"            @@@@                                @@@@            ",
"            @@@@                                @@@@            ",
"            @@@@o                              o@@@@            ",
"+          +@@@@O                              O@@@@+          +",
"@@@@@@@@@@@@@@@@.                              .@@@@@@@@@@@@@@@@",
"@@@@@@@@@@@@@@@@#                              #@@@@@@@@@@@@@@@@",
"@@@@@@@@@@@@@@@@@O                            O@@@@@@@@@@@@@@@@@",
"@@@@@@@@@@@@@@@@@#                            +@@@@@@@@@@@@@@@@@",
"@@@@@@@@@@@@@@@@@@.                          .@@@@@@@@@@@@@@@@@@",
"@@@@@@@@@@@@@@@@@@$o                        o$@@@@@@@@@@@@@@@@@@",
"@@@@@@@@@@@@@@@@@@@#                        #@@@@@@@@@@@@@@@@@@@",
"@@@@@@@@@@@@@@@@@@@@+                      +@@@@@@@@@@@@@@@@@@@@",
"@@@@@@@@@@@@@+oo+@@@@#o                  o#@@@@+oo+@@@@@@@@@@@@@",
"@@@@@@@@@@@@+    +@@@@$.                .$@@@@+    +@@@@@@@@@@@@",
"@@@@@@@@@@@+      +@@@@@+X            X+@@@@@+      +@@@@@@@@@@@",
"@@@@@@@@@@+        +@@@@@@#.Oo    oO.#@@@@@@+        +@@@@@@@@@@",
"@@@@@@@@@+         o@@@@@@@@@@@@@@@@@@@@@@@@o         +@@@@@@@@@",
"@@@@@@@@+          o@@@@@@@@@@@@@@@@@@@@@@@@o          +@@@@@@@@",
"@@@@@@@+           +@@@@@@@@@@@@@@@@@@@@@@@@+           +@@@@@@@",
"@@@@@@@.          +@@@@@@@@@@@@@@@@@@@@@@@@@@+          O@@@@@@@",
"@@@@@@@.         +@@@@@@@@@@+      +@@@@@@@@@@+         .@@@@@@@",
"@@@@@@@$o       +@@@@@@@@@@@        @@@@@@@@@@@+       o$@@@@@@@",
"@@@@@@@@$o     +@@@@@@@@@@@@        @@@@@@@@@@@@+     o#@@@@@@@@",
"@@@@@@@@@$o   +@@@@@@@@@@@@@        @@@@@@@@@@@@@+   o#@@@@@@@@@",
"@@@@@@@@@@$..+@@@@@@@@@@@@@@        @@@@@@@@@@@@@@+..$@@@@@@@@@@",
"@@@@@@@@@@@@@@@@@@@@@@@@@@@@        @@@@@@@@@@@@@@@@@@@@@@@@@@@@",
"@@@@@@@@@@@@@@@@@@@@@@@@@@@@        @@@@@@@@@@@@@@@@@@@@@@@@@@@@",
"@@@@@@@@@@@@@@@@@@@@@@@@@@@@        @@@@@@@@@@@@@@@@@@@@@@@@@@@@",
"@@@@@@@@@@@@@@@@@@@@@@@@@@@@        @@@@@@@@@@@@@@@@@@@@@@@@@@@@",
"@@@@@@@@@@@@@@@@@@@@@@@@@@@@        @@@@@@@@@@@@@@@@@@@@@@@@@@@@",
"@@@@@@@@@@@@@@@@@@@@@@@@@@@@        @@@@@@@@@@@@@@@@@@@@@@@@@@@@",
"@@@@@@@@@@@@@@@@@@@@@@@@@@@@+      +@@@@@@@@@@@@@@@@@@@@@@@@@@@@"
};
