/* XPM */
static const char *weather_snow_xpm[] = {
/* columns rows colors chars-per-pixel */
"64 64 7 1 ",
"  c #9EB8D7",
". c #A1B3C8",
"X c #9BBDE5",
"o c #9BBFE8",
"O c #9ABFEC",
"+ c #99C1F1",
"@ c None",
/* pixels */
"@@@@@@@@@@@@@@@@@@@@@@@@@@@@@@@@@@@@@@@@@@@@@@@@@@@@@@@@@@@@@@@@",
"@@@@@@@@@@@@@@@@@@@@@@@@@@@@@@@@@@@@@@@@@@@@@@@@@@@@@@@@@@@@@@@@",
"@@@@@@@@@@@@@@@@@@@@@@@@@@@@@oo@@@@@@@@@@@@@@@@@@@@@@@@@@@@@@@@@",
"@@@@@@@@@@@@@@@@@@@@@@@@@@@@o++o@@@@@@@@@@@@@@@@@@@@@@@@@@@@@@@@",
"@@@@@@@@@@@@@@@@@@@@@@@@@@@@++++@@@@@@@@@@@@@@@@@@@@@@@@@@@@@@@@",
"@@@@@@@@@@@@@@@@@@@@@@@@@@@@++++@@@@@@@@@@@@@@@@@@@@@@@@@@@@@@@@",
"@@@@@@@@@@@@@@@@@@@@@@@@@@@@++++@@@@@@@@@@@@@@@@@@@@@@@@@@@@@@@@",
"@@@@@@@@@@@@@@@@@@@@@oo.@@@@++++@@@@.oo@@@@@@@@@@@@@@@@@@@@@@@@@",
"@@@@@@@@@@@@@@@@@@@@o+++X@@@++++@@@X+++o@@@@@@@@@@@@@@@@@@@@@@@@",
"@@@@@@@@@@@@@@@@@@@@o+++++ @++++@ +++++o@@@@@@@@@@@@@@@@@@@@@@@@",
"@@@@@@@@@@@@@@@@@@@@@O+++++++++++++++++@@@@@@@@@@@@@@@@@@@@@@@@@",
"@@@@@@@@@@@@@@.@@@@@@@ ++++++++++++++ @@@@@@@..@@@@@@@@@@@@@@@@@",
"@@@@@@@@@@@@.++ @@@@@@@@ ++++++++++ @@@@@@@@ ++ @@@@@@@@@@@@@@@@",
"@@@@@@@@@@@@o+++@@@@@@@@@@X++++++X@@@@@@@@@@O+++@@@@@@@@@@@@@@@@",
"@@@@@@@@@@@@o+++@@@@@@@@@@@.++++.@@@@@@@@@@@O+++@@@@@@@@@@@@@@@@",
"@@@@@@@@@@@@o+++@@@@@@@@@@@@++++@@@@@@@@@@@@O+++@@@@@@@@@@@@@@@@",
"@@@@.+X@@@@@O+++@@@@@@@@@@@@++++@@@@@@@@@@@@o+++@@@@@X+.@@@@@@@@",
"@@@@++++ @@@O+++@@@@@@@@@@@@++++@@@@@@@@@@@@o+++@@@ ++++@@@@@@@@",
"@@@@++++++ @O+++@@@@@@@@@@@@++++@@@@@@@@@@@@o+++@ ++++++@@@@@@@@",
"@@@@.++++++o++++@@@@@@@@@@@@++++@@@@@@@@@@@@o++++++++++.@@@@@@@@",
"@@@@@@ +++++++++@@@@@@@@@@@@++++@@@@@@@@@@@@o++++++++ @@@@@@@@@@",
"@@@@@@@.X+++++++@@@@@@@@@@@@++++@@@@@@@@@@@@+++++++o@@@@@@@@@@@@",
"@@@@@@@@@.+++++++.@@@@@@@@@@++++@@@@@@@@@@.+++++++ @@@@@@@@@@@@@",
"@@@@@@@@@X++++++++o.@@@@@@@@++++@@@@@@@@@o+++++++++.@@@@@@@@@@@@",
"@@@@@@@ ++++++++++++X@@@@@@@++++@@@@@@@X++++++++++++X@@@@@@@@@@@",
"@@@@@.+++++++..o++++++ @@@@@++++@@@@@ ++++++o.@X++++++ @@@@@@@@@",
"@@@@ ++++++ @@@@.+++++++.@@@++++@@@.+++++++.@@@@.o+++++X@@@@@@@@",
"@@@@o++++ @@@@@@@@ ++++++X@@++++@@o++++++ @@@@@@@@ +++++@@@@@@@@",
"@@@@ ++o@@@@@@@@@@@@X++++++ ++++ ++++++X@@@@@@@@@@@@ ++ @@@@@@@@",
"@@@@@@@@@@@@@@@@@@@@@.O++++++++++++++o.@@@@@@@@@@@@@@@@@@@@@@@@@",
"@@@@@@@@@@@@@@@@@@@@@@@.++++++++++++ @@@@@@@@@@@@@@@@@@@@@@@@@@@",
"@@@@@@@@@@@@@@@@@@@@@@@@@ ++++++++ @@@@@@@@@@@@@@@@@@@@@@@@@@@@@",
"@@@@@@@@@@@@@@@@@@@@@@@@@ ++++++++ @@@@@@@@@@@@@@@@@@@@@@@@@@@@@",
"@@@@@@@@@@@@@@@@@@@@@@@.++++++++++++ @@@@@@@@@@@@@@@@@@@@@@@@@@@",
"@@@@@@@@@@@@@@@@@@@@@.o++++++++++++++o.@@@@@@@@@@@@@@@@@@@@@@@@@",
"@@@@ ++o.@@@@@@@@@@@X++++++ ++++X++++++X@@@@@@@@@@@@ ++ @@@@@@@@",
"@@@@o++++ @@@@@@@@ ++++++o@@++++@.X++++++ @@@@@@@@ +++++@@@@@@@@",
"@@@@ ++++++ @@@@.+++++++.@@@++++@@@.+++++++.@@@@.o+++++X@@@@@@@@",
"@@@@@.++++++O..o++++++ @@@@@++++@@@@@ ++++++o.@X++++++ @@@@@@@@@",
"@@@@@@@ ++++++++++++X@@@@@@@++++@@@@@@@X++++++++++++X.@@@@@@@@@@",
"@@@@@@@@@X++++++++o.@@@@@@@@++++@@@@@@@@.o+++++++++.@@@@@@@@@@@@",
"@@@@@@@@@.+++++++.@@@@@@@@@@++++@@@@@@@@@@.+++++++ @@@@@@@@@@@@@",
"@@@@@@@@o+++++++@@@@@@@@@@@@++++@@@@@@@@@@@@O++++++o@@@@@@@@@@@@",
"@@@@@@ +++++++++@@@@@@@@@@@@++++@@@@@@@@@@@@o++++++++ @@@@@@@@@@",
"@@@@.++++++o++++@@@@@@@@@@@@++++@@@@@@@@@@@@o++++++++++.@@@@@@@@",
"@@@@++++++ @O+++@@@@@@@@@@@@++++@@@@@@@@@@@@o+++@ ++++++@@@@@@@@",
"@@@@++++ @@@O+++@@@@@@@@@@@@++++@@@@@@@@@@@@o+++@@@ ++++@@@@@@@@",
"@@@@.+X@@@@@O+++@@@@@@@@@@@@++++@@@@@@@@@@@@o+++@@@@@XO.@@@@@@@@",
"@@@@@@@@@@@@o+++@@@@@@@@@@@@++++@@@@@@@@@@@@o+++@@@@@@@@@@@@@@@@",
"@@@@@@@@@@@@o+++@@@@@@@@@@@@++++@@@@@@@@@@@@O+++@@@@@@@@@@@@@@@@",
"@@@@@@@@@@@@o+++@@@@@@@@@@ ++++++ @@@@@@@@@@o+++@@@@@@@@@@@@@@@@",
"@@@@@@@@@@@@.++ @@@@@@@@.++++++++++ @@@@@@@@ ++ @@@@@@@@@@@@@@@@",
"@@@@@@@@@@@@@@.@@@@@@@.o++++++++++++O.@@@@@@@..@@@@@@@@@@@@@@@@@",
"@@@@@@@@@@@@@@@@@@@@@X++++++++++++++++X@@@@@@@@@@@@@@@@@@@@@@@@@",
"@@@@@@@@@@@@@@@@@@@@X+++++o.++++.o+++++X@@@@@@@@@@@@@@@@@@@@@@@@",
"@@@@@@@@@@@@@@@@@@@@+++++.@@++++@@.++++o@@@@@@@@@@@@@@@@@@@@@@@@",
"@@@@@@@@@@@@@@@@@@@@.++ @@@@++++@@@@ ++.@@@@@@@@@@@@@@@@@@@@@@@@",
"@@@@@@@@@@@@@@@@@@@@@@@@@@@@++++@@@@@@@@@@@@@@@@@@@@@@@@@@@@@@@@",
"@@@@@@@@@@@@@@@@@@@@@@@@@@@@++++@@@@@@@@@@@@@@@@@@@@@@@@@@@@@@@@",
"@@@@@@@@@@@@@@@@@@@@@@@@@@@@++++@@@@@@@@@@@@@@@@@@@@@@@@@@@@@@@@",
"@@@@@@@@@@@@@@@@@@@@@@@@@@@@o++o@@@@@@@@@@@@@@@@@@@@@@@@@@@@@@@@",
"@@@@@@@@@@@@@@@@@@@@@@@@@@@@@oo@@@@@@@@@@@@@@@@@@@@@@@@@@@@@@@@@",
"@@@@@@@@@@@@@@@@@@@@@@@@@@@@@@@@@@@@@@@@@@@@@@@@@@@@@@@@@@@@@@@@",
"@@@@@@@@@@@@@@@@@@@@@@@@@@@@@@@@@@@@@@@@@@@@@@@@@@@@@@@@@@@@@@@@"
};
