/* XPM */
static const char *weather_few_clouds[] = {
/* columns rows colors chars-per-pixel */
"64 64 12 1 ",
"  c #F5D32E",
". c #CCBC6E",
"X c #DBC457",
"o c #E4C949",
"O c #D4C062",
"+ c #B8B08D",
"@ c #B4AE92",
"# c #B6B090",
"$ c #A7A7A7",
"% c #A9A8A3",
"& c #ABA9A2",
"* c #DDDCD9",
/* pixels */
"$$$$$$$$$$$$$$$$$$$$$$$$$$$$$$$$$$$$$$$$$$$$$$$$$$$$$$$$$$$$$$$$",
"$$$$$$$$$$$$$$$$$$$$$$$$$$$$$$$$$$$$$$$$$$$$$$$$$$$$$$$$$$$$$$$$",
"$$$$$$$$$$$$$$$$$$$$$$$$$$$$$$$$$$$$$$$$$$$$$$$$$$$$$$$$$$$$$$$$",
"$$$$$$$$$$$$$$$$$$$$$$$$$$$$$$$$$$$$$$$$$$$$$$$$$$$$$$$$$$$$$$$$",
"$$$$$$$$$$$$$$$$$$$$$$$$+      +$$$$$$$$$$$$$$$$$$$$$$$$$$$$$$$$",
"$$$$$$$$$$$$$$$$$$$$$$$$        $$$$$$$$$$$$$$$$$$$$$$$$$$$$$$$$",
"$$$$$$$$$$$$$$$$$$$$$$$$        $$$$$$$$$$$$$$$$$$$$$$$$$$$$$$$$",
"$$$$$$$$$$$$$$$$$$$$$$$$        $$$$$$$$$$$$$$$$$$$$$$$$$$$$$$$$",
"$$$$$$$$$$$$$$$$$$$$$$$$        $$$$$$$$$$$$$$$$$$$$$$$$$$$$$$$$",
"$$$$$$$$$$$$$$$$$$$$$$$$        $$$$$$$$$$$$$$$$$$$$$$$$$$$$$$$$",
"$$$$$$$$$@XX@$$$$$$$$$$$        $$$$$$$$$$$@XX@$$$$$$$$$$$$$$$$$",
"$$$$$$$$@    +$$$$$$$$$$+      +$$$$$$$$$$+    @$$$$$$$$$$$$$$$$",
"$$$$$$$@      +$$$$$$$$$$$$$$$$$$$$$$$$$$#      @$$$$$$$$$$$$$$$",
"$$$$$$@        #$$$$$$$$$$$$$$$$$$$$$$$$#        @$$$$$$$$$$$$$$",
"$$$$$$X        o$$$$$$$$$$$$$$$$$$$$$$$$o        X$$$$$$$$$$$$$$",
"$$$$$$X        o$$$$$$$$$$$$$$$$$$$$$$$$o        X$$$$$$$$$$$$$$",
"$$$$$$@        +$$$$$$%.Oo    oO+%$$$$$$+        @$$$$$$$$$$$$$$",
"$$$$$$$#      +$$$$$@O            .%$$$$$+      +$$$$$$$$$$$$$$$",
"$$$$$$$$#    +$$$$%.                .$$$$$+    +$$$$$$$$$$$$$$$$",
"$$$$$$$$$#oo+$$$$%o                  o%$$$$+oo#$$$$$$$$$$$$$$$$$",
"$$$$$$$$$$$$$$$$@                     o@$$$$$$$$$$$$$$$$$$$$$$$$",
"$$$$$$$$$$$$$$$%                       o%$$$$$$$$$$$$$$$$$$$$$$$",
"$$$$$$$$$$$$$$%o                        o$$$$$$$$$$$$$$$$$$$$$$$",
"$$$$$$$$$$$$$$.                          .$$$$$$$$$$$$$$$$$$$$$$",
"$$$$$$$$$$$$$@                            %$$$$$$$$$$$$$$$$$$$$$",
"$$$$$$$$$$$$$X                            .$$$$$$$$$$$$$$$$$$$$$",
"$$$$$$$$$$$$%                              %$$$$$$$$$$$$$$$$$$$$",
"$$$$$$$$$$$$.                              +$$$$$$$$$$$$$$$$$$$$",
"+      +$$$$X                              .$$$$+      +$$$$$$$$",
"        $$$$o                              o$$$$        $$$$$$$$",
"        $$$$                                $$$$        $$$$$$$$",
"        $$$%                                $$$$        $$$$$$$$",
"        $$$$                                $$$$        $$$$$$$$",
"        $$$$                               o$$$$        $$$$$$$$",
"        $$$$o                              X$$$$        $$$$$$$$",
"+      +$$$$O                              .$$$$+      +$$$$$$$$",
"$$$$$$$$$$$$.                     o..+++.X #$$$$$$$$$$$$$$$$$$$$",
"$$$$$$$$$$$$%                   .%$$$$$$$$%%$$$$$$$$$$$$$$$$$$$$",
"$$$$$$$$$$$$$O                .%$$$$$$$$$$$$$$$$$$$$$$$$$$$$$$$$",
"$$$$$$$$$$$$$@               +$$$$$$$$$$$$$$$$$$$$$$$$$$$$$$$$$$",
"$$$$$$$$$$$$$$.             @$$$$$$******$$$$$$$$$$$$$$$$$$$$$$$",
"$$$$$$$$$$$$$$%o           +$$$$$**********$$$$$$$$$$$$$$$$$$$$$",
"$$$$$$$$$$$$$$$@          .$$$$**************$$$$$$$$$$$$$$$$$$$",
"$$$$$$$$$$$$$$$$@         %$$$****************$$$$$$$$$$$$$$$$$$",
"$$$$$$$$$#oo+$$$$@o      .$$$$****************$******$$$$$$$$$$$",
"$$$$$$$$#    +$$$$%.     @$$$**************************$$$$$$$$$",
"$$$$$$$#      +$$$$$@O  o$$$$***************************$$$$$$$$",
"$$$$$$@        +$$$$%%%++$$$*****************************$$$$$$$",
"$$$$$$X        o$$$$$$$$$$$$*****************************$$$$$$$",
"$$$$$$X        o$$$$$$$$$$$$******************************$$$$$$",
"$$$$$$@        #$$$$$$$$$$$$******************************$$$$$$",
"$$$$$$$@      +$$$$$$$$$$$$$******************************$$$$$$",
"$$$$$$$$@    +$$$$$$$$$$************************************$$$$",
"$$$$$$$$$@XX@$$$$$$$$$****************************************$$",
"$$$$$$$$$$$$$$$$$$$$$******************************************$",
"$$$$$$$$$$$$$$$$$$$$$******************************************$",
"$$$$$$$$$$$$$$$$$$$$********************************************",
"$$$$$$$$$$$$$$$$$$$$********************************************",
"$$$$$$$$$$$$$$$$$$$$********************************************",
"$$$$$$$$$$$$$$$$$$$$********************************************",
"$$$$$$$$$$$$$$$$$$$$$******************************************$",
"$$$$$$$$$$$$$$$$$$$$$******************************************$",
"$$$$$$$$$$$$$$$$$$$$$$****************************************$$",
"$$$$$$$$$$$$$$$$$$$$$$$$************************************$$$$"
};
