/* XPM */
static const char *weather_clear_night[] = {
/* columns rows colors chars-per-pixel */
"64 64 3 1 ",
"  c #BCBEC5",
". c #EFEFF7",
"X c None",
/* pixels */
"XXXXXXXXXXXXXXXXXXXXXXXXXXXXXXXXXXXXXXXXXXXXXXXXXXXXXXXXXXXXXXXX",
"XXXXXXXXXXXXXXXXXXXXXXXXXXXXXXXXXXXXXXXXXXXXXXXXXXXXXXXXXXXXXXXX",
"XXXXXXXXXXXXXXXXXXXXXXXXXXXXXXXXXXXXXXXXXXXXXXXXXXXXXXXXXXXXXXXX",
"XXXXXXXXXXXXXXXXXXXXXXXXXXXXXXXXXXXXXXXXXXXXXXXXXXXXXXXXXXXXXXXX",
"XXXXXXXXXXXXXXXXXXXXXXXXX  XXXXXXXXXXXXXXXXXXXXXXXXXXXXXXXXXXXXX",
"XXXXXXXXXXXXXXXXXXXXXX ....XXXXXXXXXXXXXXXXXXXXXXXXXXXXXXXXXXXXX",
"XXXXXXXXXXXXXXXXXXXX ..... XXXXXXXXXXXXXXXXXXXXXXXXXXXXXXXXXXXXX",
"XXXXXXXXXXXXXXXXXX .......XXXXXXXXXXXXXXXXXXXXXXXXXXXXXXXXXXXXXX",
"XXXXXXXXXXXXXXXX .........XXXXXXXXXXXXXXXXXXXXXXXXXXXXXXXXXXXXXX",
"XXXXXXXXXXXXXXX ......... XXXXXXXXXXXXXXXXXXXXXXXXXXXXXXXXXXXXXX",
"XXXXXXXXXXXXXX...........XXXXXXXXXXXXXXXXXXXXXXXXXXXXXXXXXXXXXXX",
"XXXXXXXXXXXX ............XXXXXXXXXXXXXXXXXXXXXXXXXXXXXXXXXXXXXXX",
"XXXXXXXXXXX .............XXXXXXXXXXXXXXXXXXXXXXXXXXXXXXXXXXXXXXX",
"XXXXXXXXXXX............. XXXXXXXXXXXXXXXXXXXXXXXXXXXXXXXXXXXXXXX",
"XXXXXXXXXX.............. XXXXXXXXXXXXXXXXXXXXXXXXXXXXXXXXXXXXXXX",
"XXXXXXXXX............... XXXXXXXXXXXXXXXXXXXXXXXXXXXXXXXXXXXXXXX",
"XXXXXXXX ............... XXXXXXXXXXXXXXXXXXXXXXXXXXXXXXXXXXXXXXX",
"XXXXXXXX................XXXXXXXXXXXXXXXXXXXXXXXXXXXXXXXXXXXXXXXX",
"XXXXXXX ................XXXXXXXXXXXXXXXXXXXXXXXXXXXXXXXXXXXXXXXX",
"XXXXXXX.................XXXXXXXXXXXXXXXXXXXXXXXXXXXXXXXXXXXXXXXX",
"XXXXXX..................XXXXXXXXXXXXXXXXXXXXXXXXXXXXXXXXXXXXXXXX",
"XXXXXX..................XXXXXXXXXXXXXXXXXXXXXXXXXXXXXXXXXXXXXXXX",
"XXXXX ..................XXXXXXXXXXXXXXXXXXXXXXXXXXXXXXXXXXXXXXXX",
"XXXXX................... XXXXXXXXXXXXXXXXXXXXXXXXXXXXXXXXXXXXXXX",
"XXXXX................... XXXXXXXXXXXXXXXXXXXXXXXXXXXXXXXXXXXXXXX",
"XXXX ................... XXXXXXXXXXXXXXXXXXXXXXXXXXXXXXXXXXXXXXX",
"XXXX ....................XXXXXXXXXXXXXXXXXXXXXXXXXXXXXXXXXXXXXXX",
"XXXX.....................XXXXXXXXXXXXXXXXXXXXXXXXXXXXXXXXXXXXXXX",
"XXXX..................... XXXXXXXXXXXXXXXXXXXXXXXXXXXXXXXXXXXXXX",
"XXXX..................... XXXXXXXXXXXXXXXXXXXXXXXXXXXXXXXXXXXXXX",
"XXXX......................XXXXXXXXXXXXXXXXXXXXXXXXXXXXXXXXXXXXXX",
"XXXX...................... XXXXXXXXXXXXXXXXXXXXXXXXXXXXXXXXXXXXX",
"XXXX.......................XXXXXXXXXXXXXXXXXXXXXXXXXXXXXXXXXXXXX",
"XXXX.......................XXXXXXXXXXXXXXXXXXXXXXXXXXXXXXXXXXXXX",
"XXXX....................... XXXXXXXXXXXXXXXXXXXXXXXXXXXXXXXXXXXX",
"XXXX........................XXXXXXXXXXXXXXXXXXXXXXXXXXXXXXXXXXXX",
"XXXX.........................XXXXXXXXXXXXXXXXXXXXXXXXXXXXXXXXXXX",
"XXXX ........................ XXXXXXXXXXXXXXXXXXXXXXXXXXXXXXXXXX",
"XXXX .........................XXXXXXXXXXXXXXXXXXXXXXXXXXXXXXXXXX",
"XXXXX......................... XXXXXXXXXXXXXXXXXXXXXXXXXXXXXXXXX",
"XXXXX.......................... XXXXXXXXXXXXXXXXXXXXXXXXXXXXXXXX",
"XXXXX .......................... XXXXXXXXXXXXXXXXXXXXXXXXXXXXXXX",
"XXXXXX...........................XXXXXXXXXXXXXXXXXXXXXXXXXXXXXXX",
"XXXXXX ...........................XXXXXXXXXXXXXXXXXXXXXXXXXXXXXX",
"XXXXXXX............................XXXXXXXXXXXXXXXXXXXXXXXXXXXXX",
"XXXXXXX ............................ XXXXXXXXXXXXXXXXXXXXXXXXXXX",
"XXXXXXXX............................. XXXXXXXXXXXXXXXXXXXXXXXXXX",
"XXXXXXXX ............................. XXXXXXXXXXXXXXXXXXXXXXXXX",
"XXXXXXXXX............................... XXXXXXXXXXXXXXXXXXXXXXX",
"XXXXXXXXXX............................... XXXXXXXXXXXXXXXXXXXXXX",
"XXXXXXXXXXX................................ XXXXXXXXXXXXXXXXXXXX",
"XXXXXXXXXXX .................................. XXXXXXXXXXXXXXXXX",
"XXXXXXXXXXXX ...................................  XXXXXXXXXXXXXX",
"XXXXXXXXXXXXXX....................................XXXXXXXXXXXXXX",
"XXXXXXXXXXXXXXX................................. XXXXXXXXXXXXXXX",
"XXXXXXXXXXXXXXXX .............................. XXXXXXXXXXXXXXXX",
"XXXXXXXXXXXXXXXXXX .......................... XXXXXXXXXXXXXXXXXX",
"XXXXXXXXXXXXXXXXXXXX ...................... XXXXXXXXXXXXXXXXXXXX",
"XXXXXXXXXXXXXXXXXXXXXX .................. XXXXXXXXXXXXXXXXXXXXXX",
"XXXXXXXXXXXXXXXXXXXXXXXXX  ..........  XXXXXXXXXXXXXXXXXXXXXXXXX",
"XXXXXXXXXXXXXXXXXXXXXXXXXXXXXXXXXXXXXXXXXXXXXXXXXXXXXXXXXXXXXXXX",
"XXXXXXXXXXXXXXXXXXXXXXXXXXXXXXXXXXXXXXXXXXXXXXXXXXXXXXXXXXXXXXXX",
"XXXXXXXXXXXXXXXXXXXXXXXXXXXXXXXXXXXXXXXXXXXXXXXXXXXXXXXXXXXXXXXX",
"XXXXXXXXXXXXXXXXXXXXXXXXXXXXXXXXXXXXXXXXXXXXXXXXXXXXXXXXXXXXXXXX"
};
