/* XPM */
static const char *weather_storm_xpm[] = {
/* columns rows colors chars-per-pixel */
"64 64 10 1 ",
"  c #5E5C64",
". c #605E66",
"X c #6E6D73",
"o c #F8EF6C",
"O c #7E7D81",
"+ c #807F83",
"@ c #919093",
"# c #C2BF93",
"$ c #C8C58F",
"% c None",
/* pixels */
"%%%%%%%%%%%%%%%%%%%%%%%%%%%%%%%%%%%@XXXX@%%%%%%%%%%%%%%%%%%%%%%%",
"%%%%%%%%%%%%%%%%%%%%%%%%%%%%%%%%%X        X%%%%%%%%%%%%%%%%%%%%%",
"%%%%%%%%%%%%%%%%%%%%%%%%%%%%%%%@.          .@%%%%%%%%%%%%%%%%%%%",
"%%%%%%%%%%%%%%%%%%%%%%%%%%%%%%%.             @%%%%%%%%%%%%%%%%%%",
"%%%%%%%%%%%%%%%%%%%%%%%%%%%%%%.              .%%%%%%%%%%%%%%%%%%",
"%%%%%%%%%%%%%%%%%%%%%%%%%%%%%X                X%%%%%%%%%%%%%%%%%",
"%%%%%%%%%%%%%%%%%%%%%%%%%%%%%                  %%%%%%%%%%%%%%%%%",
"%%%%%%%%%%%%%%%%%%%%%%%%%%%%@                  O%%%%%%%%%%%%%%%%",
"%%%%%%%%%%%%%%%%%%%%%@XXXX@%X                  X%%%%%%%%%%%%%%%%",
"%%%%%%%%%%%%%%%%%%@X                           .%%%%%%%%%%%%%%%%",
"%%%%%%%%%%%%%%%%%X                             .%%%%%%%%%%%%%%%%",
"%%%%%%%%%%%%%%%%.                              X%%%%%%%%%%%%%%%%",
"%%%%%%%%%%%%%%%X                               .@%%%%%%%%%%%%%%%",
"%%%%%%%%%%%%%%X                                  .X%%%%%%%%%%%%%",
"%%%%%%%%%%%%%%                                     .%%%%%%%%%%%%",
"%%%%%%%%%%%%%X                                      .%%%%%%%%%%%",
"%%%%%%%%%%%%%                                        .%%%%%%%%%%",
"%%%%%%%%%%%%@                                         X%%%%%%%%%",
"%%%%%%%%%%%%O                                          %%%%%%%%%",
"%%%%%%%%%%%%X                                          @%%%%%%%%",
"%%%%%%XXXX@%X                                          X%%%%%%%%",
"%%%%X      ..                                          X%%%%%%%%",
"%%@.                                                   X%%%%%%%%",
"%%.                                                    X%%%%%%%%",
"%X                             X@%%%O                  XXXXO%%%%",
"%                            .@%%%%%%%.                      +%%",
"@                            @%%%%%%%%%.                      +%",
"O                           X%%%%%%%%%%O                       %",
"X                           %%%%#oo%%%%%                       O",
"@                           %%%%oooo%%%%                       X",
"%                           %%%%oooo%%%%                       X",
"%.                          %%%%oooo%%%%                       X",
"%@                          %%%%oooo%%%%                       @",
"%%X                         %%%%oooo%%%%                      X%",
"%%%O                        %%%%oooo%%%%                     X%%",
"%%%%%OX.                    %%%%oooo%%%%                  .X@%%%",
"%%%%%%%%%%%%%%%%%%%%%%%%%%%%%%%%oooo%%%%%%%%%%%%%%%%%%%%%%%%%%%%",
"%%%%%%%%%%%%%%%%%%%%%%%%%%%%%%%%oooo%%%%%%%%%%%%%%%%%%%%%%%%%%%%",
"%%%%%%%%%%%%%%%%%%%%%%%%%%%%%%%%oooo%%%%%%%%%%%%%%%%%%%%%%%%%%%%",
"%%%%%%%%%%%%%%%%%%%%%%%%%%%%%%%%oooo%%%%%%%%%%%%%%%%%%%%%%%%%%%%",
"%%%%%%%%%%%%%%%%%%%%oooooooooooooooo%%%%%%%%%%%%%%%%%%%%%%%%%%%%",
"%%%%%%%%%%%%%%%%%%%%oooooooooooooooo%%%%%%%%%%%%%%%%%%%%%%%%%%%%",
"%%%%%%%%%%%%%%%%%%%%oooooooooooooooo%%%%%%%%%%%%%%%%%%%%%%%%%%%%",
"%%%%%%%%%%%%%%%%%%%%oooooooooooooooo%%%%%%%%%%%%%%%%%%%%%%%%%%%%",
"%%%%%%%%%%%%#ooooooooooo%%%%%%%%oooo%%%%%%%%%%%%%%%%%%%%%%%%%%%%",
"%%%%%%%%%%%$oooooooooooo%%%%%%%%oooo$%%%%%%%%%%%%%%%%%%%%%%%%%%%",
"%%%%%%%%%%$ooooooooooooo%%%%%%%%ooooo$%%%%%%%%%%%%%%%%%%%%%%%%%%",
"%%%%%%%%%#oooooooooooooo%%%%%%%%#ooooo$%%%%%%%%%%%%%%%%%%%%%%%%%",
"%%%%%%%%#ooooo$%%%%%oooo%%%%%%%%%#ooooo$%%%%%%%%%%%%%%%%%%%%%%%%",
"%%%%%%%#ooooo$%%%%%%oooo%%%%%%%%%%#ooooo$%%%%%%%%%%%%%%%%%%%%%%%",
"%%%%%%#ooooo$%%%%%%%oooo%%%%%%%%%%%#ooooo$%%%%%%%%%%%%%%%%%%%%%%",
"%%%%%#ooooo$%%%%%%%%oooo%%%%%%%%%%%%#ooooo$%%%%%%%%%%%%%%%%%%%%%",
"%%%%#ooooo$%%%%%%%%%oooo%%%%%%%%%%%%%#ooooooooooooo$%%%%%%%%%%%%",
"%%%#ooooo$%%%%%%%%%%oooo%%%%%%%%%%%%%%#oooooooooooooo%%%%%%%%%%%",
"%%#ooooo$%%%%%%%%%%%oooo%%%%%%%%%%%%%%%$oooooooooooooo$%%%%%%%%%",
"%%ooooo$%%%%%%%%%%%%oooo%%%%%%%%%%%%%%%%oooooooooooooooo$%%%%%%%",
"%%oooo$%%%%%%%%%%%%%oooo%%%%%%%%%%%%%%%%oooo%%%%%%$ooooooo%%%%%%",
"%%%oo#%%%%%%%%%%%%%%oooo%%%%%%%%%%%%%%%%oooo%%%%%%%%ooooooo$%%%%",
"%%%%%%%%%%%%%%%%%%%%oooo%%%%%%%%%%%%%%%%oooo%%%%%%%%%$ooooooo%%%",
"%%%%%%%%%%%%%%%%%%%%oooo%%%%%%%%%%%%%%%%oooo%%%%%%%%%%%$oooooo%%",
"%%%%%%%%%%%%%%%%%%%%oooo%%%%%%%%%%%%%%%%oooo%%%%%%%%%%%%%ooooo%%",
"%%%%%%%%%%%%%%%%%%%%%oo%%%%%%%%%%%%%%%%%%oo%%%%%%%%%%%%%%%$oo#%%",
"%%%%%%%%%%%%%%%%%%%%%%%%%%%%%%%%%%%%%%%%%%%%%%%%%%%%%%%%%%%%%%%%",
"%%%%%%%%%%%%%%%%%%%%%%%%%%%%%%%%%%%%%%%%%%%%%%%%%%%%%%%%%%%%%%%%"
};
