/* XPM */
static const char *weather_overcast[] = {
/* columns rows colors chars-per-pixel */
"64 64 9 1 ",
"  c #A8A8A8",
". c #C1C1BF",
"X c #D4D3D1",
"o c #D6D5D2",
"O c #D6D5D3",
"+ c #DBDAD7",
"@ c #DBDAD8",
"# c #DCDBD8",
"$ c #DEDDDA",
/* pixels */
"                                                                ",
"                                                                ",
"                                                                ",
"                                                                ",
"                                                                ",
"                                                                ",
"                                                                ",
"                                                                ",
"                                   Xo#+oX                       ",
"                                 o$$$$$$$$o                     ",
"                               X$$$$$$$$$$$$X                   ",
"                              X$$$$$$$$$$$$$$X                  ",
"                              $$$$$$$$$$$$$$$$                  ",
"                             o$$$$$$$$$$$$$$$$o                 ",
"                             $$#$$$$$$$$$$$$$$$                 ",
"                            X$$$$$$$$$$$$$$$$$$X                ",
"                     Xo#+oX X$$$$$$$$$$$$$$$$$$o                ",
"                  X$$$$$$$$$$$$$$$$$$$$$$$$$$$$+                ",
"                 +$$$$$$$$$$$$$$$$$$$$$$$$$$$$$+                ",
"                $$$$$$$$$$$$$$$$$$$$$$$$$$$$$$$X                ",
"               $$$$$$$$$$$$$$$$$$$$$$$$$$$$$$$$+X               ",
"              #$$$$$$$$$$$$$$$$$$$$$$$$$$$$$$$$$$$X             ",
"             X$$$$$$$$$$$$$$$$$$$$$$$$$$$$$$$$$$$$$$X           ",
"             $$$$$$$$$$$$$$$$$$$$$$$$$$$$$$$$$$$$$$$$X          ",
"             $$$$$$$$$$$$$$$$$$$$$$$$$$$$$$$$$$$$$$$$$          ",
"            X$$$$$$$$$$$$$$$$$$$$$$$$$$$$$$$$$$$$$$$$$o         ",
"            o$$$$$$$$$$$$$$$$$$$$$$$$$$$$$$$$$$$$$$$$$$         ",
"            +$$$$$$$$$$$$$$$$$$$$$$$$$$$$$$$$$$$$$$$$$$X        ",
"     Xo@+XX +$$$$$$$$$$$$$$$$$$$$$$$$$$$$$$$$$$$$$$$$$$o        ",
"   X$$$$$$$$$$$$$$$$$$$$$$$$$$$$$$$$$$$$$$$$$$$$$$$$$$$#        ",
"  X$$$$$$$$$$$$$$$$$$$$$$$$$$$$$$$$$$$$$$$$$$$$$$$$$$$$#        ",
" X$$$$$$$$$$$$$$$$$$$$$$$$$$$$$$$$$$$$$$$$$$$$$$$$$$$$$o        ",
" #$$$$$$$$$$$$$$$$$$$$$$$$$$$XX      X+$$$$$$$$$$$$$$$$oX+#X    ",
"X$$$$$$$$$$$$$$$$$$$$$$$$$$X            +$$$$$$$$$$$$$$$$$$$$X  ",
"X$$$$$$$$$$$$$$$$$$$$$$$$+               X$$$$$$$$$$$$$$$$$$$$X ",
"+$$$$$$$$$$$$$$$$$$$$$$$o                 X$$$$$$$$$$$$$$$$$$$$ ",
"+$$$$$$$$$$$$$$$$$$$$$$o       Xo##oX            X$$$$$$$$$$$$$X",
"o$$$$$$$$$$$$$$$$$$$$$#      o$$$$$$$$o            X$$$$$$$$$$$+",
"X$$$$$$$$$$$$$$$$$$$$$.    X$$$$$$$$$$$$X            $$$$$$$$$$+",
" $$$$$$$$$$$$$$$$$$$$o    X$$$$$$$$$$$$$$X            $$$$$$$$$X",
" X$$$$$$$$$$$$$$$$$$$     $$$$$$$$$$$$$$$$ XX+#oX     .$$$$$$$$ ",
"  X$$$$$$$$$$$$$$$$$#    o$$$$$$$$$$$$$$$$$#$$$$$$X    X$$$$$$X ",
"   X$$$$$$$$$$$$$$$$X    $$$$$$$$$$$$$$$$$$$$$$$$$$X    $$$$$X  ",
"     XX+$$$$$$$$$$$$X   X$$$$$$$$$$$$$$$$$$$$$$$$$$$X   o$#X    ",
"                        o$$$$$$$$$$$$$$$$$$$$$$$$$$$$           ",
"                        #$$$$$$$$$$$$$$$$$$$$$$$$$$$$X          ",
"                        @$$$$$$$$$$$$$$$$$$$$$$$$$$$$X          ",
"                        X$$$$$$$$$$$$$$$$$$$$$$$$$$$$+          ",
"                   .X$#Xo$$$$$$$$$$$$$$$$$$$$$$$$$$$$$#X        ",
"                  X$$$$$$$$$$$$$$$$$$$$$$$$$$$$$$$$$$$$$$X      ",
"                 X$$$$$$$$$$$$$$$$$$$$$$$$$$$$$$$$$$$$$$$$X     ",
"                 $$$$$$$$$$$$$$$$$$$$$$$$$$$$$$$$$$$$$$$$$$     ",
"                X$$$$$$$$$$$$$$$$$$$$$$$$$$$$$$$$$$$$$$$$$$X    ",
"                @$$$$$$$$$$$$$$$$$$$$$$$$$$$$$$$$$$$$$$$$$$+    ",
"                @$$$$$$$$$$$$$$$$$$$$$$$$$$$$$$$$$$$$$$$$$$+    ",
"                X$$$$$$$$$$$$$$$$$$$$$$$$$$$$$$$$$$$$$$$$$$X    ",
"                 $$$$$$$$$$$$$$$$$$$$$$$$$$$$$$$$$$$$$$$$$$     ",
"                 X$$$$$$$$$$$$$$$$$$$$$$$$$$$$$$$$$$$$$$$$X     ",
"                  X$$$$$$$$$$$$$$$$$$$$$$$$$$$$$$$$$$$$$$X      ",
"                    X+$$$$$$$$$$$$$$$$$$$$$$$$$$$$$$$$+X        ",
"                                                                ",
"                                                                ",
"                                                                ",
"                                                                "
};
