/* XPM */
static const char *weather_few_clouds_night[] = {
/* columns rows colors chars-per-pixel */
"64 64 3 1 ",
"  c #BCBEC5",
". c #E6E5E8",
"X c None",
/* pixels */
"XXXXXXXXXXXXXXXXXXXXXXXXXXXXXXXXXXXXXXXXXXXXXXXXXXXXXXXXXXXXXXXX",
"XXXXXXXXXXXXXXXXXXXXXXXXXXXXXXXXXXXXXXXXXXXXXXXXXXXXXXXXXXXXXXXX",
"XXXXXXXXXXXXXXXXXXXXXXXXXXXXXXXXXXXXXXXXXXXXXXXXXXXXXXXXXXXXXXXX",
"XXXXXXXXXXXXXXXXXXXXXXXXXXXXXXXXXXXXXXXXXXXXXXXXXXXXXXXXXXXXXXXX",
"XXXXXXXXXXXXXXXXXXXXXXXXX  XXXXXXXXXXXXXXXXXXXXXXXXXXXXXXXXXXXXX",
"XXXXXXXXXXXXXXXXXXXXXX ....XXXXXXXXXXXXXXXXXXXXXXXXXXXXXXXXXXXXX",
"XXXXXXXXXXXXXXXXXXXX...... XXXXXXXXXXXXXXXXXXXXXXXXXXXXXXXXXXXXX",
"XXXXXXXXXXXXXXXXXX........XXXXXXXXXXXXXXXXXXXXXXXXXXXXXXXXXXXXXX",
"XXXXXXXXXXXXXXXX .........XXXXXXXXXXXXXXXXXXXXXXXXXXXXXXXXXXXXXX",
"XXXXXXXXXXXXXXX.......... XXXXXXXXXXXXXXXXXXXXXXXXXXXXXXXXXXXXXX",
"XXXXXXXXXXXXXX...........XXXXXXXXXXXXXXXXXXXXXXXXXXXXXXXXXXXXXXX",
"XXXXXXXXXXXXX............XXXXXXXXXXXXXXXXXXXXXXXXXXXXXXXXXXXXXXX",
"XXXXXXXXXXXX.............XXXXXXXXXXXXXXXXXXXXXXXXXXXXXXXXXXXXXXX",
"XXXXXXXXXXX............. XXXXXXXXXXXXXXXXXXXXXXXXXXXXXXXXXXXXXXX",
"XXXXXXXXXX.............. XXXXXXXXXXXXXXXXXXXXXXXXXXXXXXXXXXXXXXX",
"XXXXXXXXX............... XXXXXXXXXXXXXXXXXXXXXXXXXXXXXXXXXXXXXXX",
"XXXXXXXX ...............XXXXXXXXXXXXXXXXXXXXXXXXXXXXXXXXXXXXXXXX",
"XXXXXXXX................XXXXXXXXXXXXXXXXXXXXXXXXXXXXXXXXXXXXXXXX",
"XXXXXXX.................XXXXXXXXXXXXXXXXXXXXXXXXXXXXXXXXXXXXXXXX",
"XXXXXXX.................XXXXXXXXXXXXXXXXXXXXXXXXXXXXXXXXXXXXXXXX",
"XXXXXX..................XXXXXXXXXXXXXXXXXXXXXXXXXXXXXXXXXXXXXXXX",
"XXXXXX..................XXXXXXXXXXXXXXXXXXXXXXXXXXXXXXXXXXXXXXXX",
"XXXXX................... XXXXXXXXXXXXXXXXXXXXXXXXXXXXXXXXXXXXXXX",
"XXXXX................... XXXXXXXXXXXXXXXXXXXXXXXXXXXXXXXXXXXXXXX",
"XXXXX................... XXXXXXXXXXXXXXXXXXXXXXXXXXXXXXXXXXXXXXX",
"XXXX ....................XXXXXXXXXXXXXXXXXXXXXXXXXXXXXXXXXXXXXXX",
"XXXX.....................XXXXXXXXXXXXXXXXXXXXXXXXXXXXXXXXXXXXXXX",
"XXXX.....................XXXXXXXXXXXXXXXXXXXXXXXXXXXXXXXXXXXXXXX",
"XXXX..................... XXXXXXXXXXXXXXXXXXXXXXXXXXXXXXXXXXXXXX",
"XXXX......................XXXXXXXXXXXXXXXXXXXXXXXXXXXXXXXXXXXXXX",
"XXXX......................XXXXXXXXXXXXXXXXXXXXXXXXXXXXXXXXXXXXXX",
"XXXX...................... XXXXXXXXXXXXXXXXXXXXXXXXXXXXXXXXXXXXX",
"XXXX.......................XXXXXXXXXXXXXXXXXXXXXXXXXXXXXXXXXXXXX",
"XXXX....................... XXXXXXXXXXXXXXXXXXXXXXXXXXXXXXXXXXXX",
"XXXX........................XXXXXXXXXXXXXXXXXXXXXXXXXXXXXXXXXXXX",
"XXXX........................ XXXXXXXXXXXXXXXXXXXXXXXXXXXXXXXXXXX",
"XXXX.........................XXXXXXXXXXXXXXXXXXXXXXXXXXXXXXXXXXX",
"XXXX ........................ XXXXXXXXXXXXXXXXXXXXXXXXXXXXXXXXXX",
"XXXX ........................XXXXXXXXXXXXXXXXXXXXXXXXXXXXXXXXXXX",
"XXXXX.......................XXXXXXXXXXXXXXXXXXXXXXXXXXXXXXXXXXXX",
"XXXXX......................XXXXXXX   ..   XXXXXXXXXXXXXXXXXXXXXX",
"XXXXX ....................XXXXXX  ......... XXXXXXXXXXXXXXXXXXXX",
"XXXXXX................... XXXXX ............ XXXXXXXXXXXXXXXXXXX",
"XXXXXX...................XXXXX .............. XXXXXXXXXXXXXXXXXX",
"XXXXXXX................. XXXX ................   ..  XXXXXXXXXXX",
"XXXXXXX.................XXXXX ........................ XXXXXXXXX",
"XXXXXXXX................XXXX .......................... XXXXXXXX",
"XXXXXXXX ...............XXXX ........................... XXXXXXX",
"XXXXXXXXX..............XXXXX.............................XXXXXXX",
"XXXXXXXXXX...........XXXXXXX............................. XXXXXX",
"XXXXXXXXXXX........XXXXXXXXX............................. XXXXXX",
"XXXXXXXXXXXX......XXXXXXXXXX..............................XXXXXX",
"XXXXXXXXXXXXX....XXXXXX  ..  ..............................  XXX",
"XXXXXXXXXXXXXX.. XXXXX....................................... XX",
"XXXXXXXXXXXXXXX XXXXX......................................... X",
"XXXXXXXXXXXXXXXXXXXX .......................................... ",
"XXXXXXXXXXXXXXXXXXXX .......................................... ",
"XXXXXXXXXXXXXXXXXXXX............................................",
"XXXXXXXXXXXXXXXXXXXX............................................",
"XXXXXXXXXXXXXXXXXXXX........................................... ",
"XXXXXXXXXXXXXXXXXXXX .......................................... ",
"XXXXXXXXXXXXXXXXXXXXX......................................... X",
"XXXXXXXXXXXXXXXXXXXXXX....................................... XX",
"XXXXXXXXXXXXXXXXXXXXXXX  ..................................  XXX"
};
