/* XPM */
static const char *weather_showers[] = {
/* columns rows colors chars-per-pixel */
"64 64 15 1 ",
"  c #7D9ABE",
". c #3F87DF",
"X c #3584E4",
"o c #4E8CD6",
"O c #6B95C7",
"+ c #9A9996",
"@ c #A09F9D",
"# c #A0A09E",
"$ c #859DB9",
"% c #99A3AE",
"& c #A2A1A0",
"* c #A4A3A3",
"= c #A4A4A3",
"- c #A6A6A6",
"; c #A7A7A7",
/* pixels */
";;;;;;;;;;;;;;;;;;;;;;;;;;;;;;;;;;&@++++@&;;;;;;;;;;;;;;;;;;;;;;",
";;;;;;;;;;;;;;;;;;;;;;;;;;;;;;;;&+++++++++@=;;;;;;;;;;;;;;;;;;;;",
";;;;;;;;;;;;;;;;;;;;;;;;;;;;;;;@++++++++++++&;;;;;;;;;;;;;;;;;;;",
";;;;;;;;;;;;;;;;;;;;;;;;;;;;;;@++++++++++++++&;;;;;;;;;;;;;;;;;;",
";;;;;;;;;;;;;;;;;;;;;;;;;;;;;&++++++++++++++++;;;;;;;;;;;;;;;;;;",
";;;;;;;;;;;;;;;;;;;;;;;;;;;;;+++++++++++++++++@;;;;;;;;;;;;;;;;;",
";;;;;;;;;;;;;;;;;;;;;;;;;;;;&++++++++++++++++++;;;;;;;;;;;;;;;;;",
";;;;;;;;;;;;;;;;;;;;;;;;;;;;@++++++++++++++++++&;;;;;;;;;;;;;;;;",
";;;;;;;;;;;;;;;;;;;;&@++++@&+++++++++++++++++++@;;;;;;;;;;;;;;;;",
";;;;;;;;;;;;;;;;;;@++++++++++++++++++++++++++++@;;;;;;;;;;;;;;;;",
";;;;;;;;;;;;;;;;&++++++++++++++++++++++++++++++@;;;;;;;;;;;;;;;;",
";;;;;;;;;;;;;;;&+++++++++++++++++++++++++++++++@;;;;;;;;;;;;;;;;",
";;;;;;;;;;;;;;*+++++++++++++++++++++++++++++++++#;;;;;;;;;;;;;;;",
";;;;;;;;;;;;;;++++++++++++++++++++++++++++++++++++@;;;;;;;;;;;;;",
";;;;;;;;;;;;;@++++++++++++++++++++++++++++++++++++++&;;;;;;;;;;;",
";;;;;;;;;;;;;++++++++++++++++++++++++++++++++++++++++&;;;;;;;;;;",
";;;;;;;;;;;;&+++++++++++++++++++++++++++++++++++++++++;;;;;;;;;;",
";;;;;;;;;;;;@+++++++++++++++++++++++++++++++++++++++++@;;;;;;;;;",
";;;;;;;;;;;;@++++++++++++++++++++++++++++++++++++++++++;;;;;;;;;",
";;;;;;;;;;;;+++++++++++++++++++++++++++++++++++++++++++&;;;;;;;;",
";;;;;#@++@@;+++++++++++++++++++++++++++++++++++++++++++@;;;;;;;;",
";;;#+++++++++++++++++++++++++++++++++++++++++++++++++++@;;;;;;;;",
";;@++++++++++++++++++++++++++++++++++++++++++++++++++++@;;;;;;;;",
";&+++++++++++++++++++++++++++++++++++++++++++++++++++++@;;;;;;;;",
";++++++++++++++++++++++++++++++++++++++++++++++++++++++@+++@&;;;",
"&++++++++++++++++++++++++++++++++++++++++++++++++++++++++++++#;;",
"@+++++++++++++++++++++++++++++++++++++++++++++++++++++++++++++#;",
"@++++++++++++++++++++++++++++++++++++++++++++++++++++++++++++++;",
"@++++++++++++++++++++++++++++++++++++++++++++++++++++++++++++++&",
"@++++++++++++++++++++++++++++++++++++++++++++++++++++++++++++++@",
"&++++++++++++++++++++++++++++++++++++++++++++++++++++++++++++++@",
";++++++++++++++++++++++++++++++++++++++++++++++++++++++++++++++&",
";&+++++++++++++++++++++++++++++++++++++++++++++++++++++++++++++;",
";;@+++++++++++++++++++++++++++++++++++++++++++++++++++++++++++#;",
";;;#+++++++++++++++++++++++++++++++++++++++++++++++++++++++++@;;",
";;;;;#@++++++++++++++++++++++++++++++++++++++++++++++++++++@=;;;",
";;;;;;;;;;;;;;;;;;;;;;;;;;;;;;;;;;;;;;;;;;;;;;;;;;;;;;;;;;;;;;;;",
";;;;;;;;;;;;;;;;;;;;;;;;;;;;;;;;;;;;;;;;;;;;;;;;;;;;;;;;;;;;;;;;",
";;;;;;;;;;;;;;;;;;;;;;;;;;;;;;;;;;;;;;;;;;;;;;;;;;;;;;;;;;;;;;;;",
";;;;;;;;;;;;;;;;;;;;;;;;;;;;;;;;;;;;;;;;;;;;;;;;;;;;;;;;;;;;;;;;",
";;;;;;;;$..$;;;;$.o$;;;;$..$;;;;$..$;;;;$..$;;;;$..$;;;;;;;;;;;;",
";;;;;;;;.XXo;;;;oXXo;;;;oXXo;;;;oXXo;;;;oXXo;;;;oXXo;;;;;;;;;;;;",
";;;;;;;%XXXo;;;%XXX.;;;%XXX.;;;%XXX.;;;%XXX.;;;%XXX.;;;;;;;;;;;;",
";;;;;;; XXXo;;;$XXXo;;; XXXo;;;$XXXo;;;$XXXo;;;$XXXo;;;;;;;;;;;;",
";;;;;;;OXXXO;;;OXXXO;;;OXXXO;;;OXXXO;;;OXXXO;;;OXXXO;;;;;;;;;;;;",
";;;;;;;oXXX$;;;oXXX$;;;oXXX$;;;oXXX$;;;oXXX$;;;oXXX$;;;;;;;;;;;;",
";;;;;;;.XXX%;;;.XXX%;;;.XXX%;;;.XXX%;;;.XXX%;;;.XXX%;;;;;;;;;;;;",
";;;;;;%XXXo;;;%XXX.;;;%XXX.;;;%XXX.;;;%XXX.;;;%XXX.;;;;;;;;;;;;;",
";;;;;; XXXo;;; XXXo;;; XXXo;;; XXXo;;; XXXo;;;$XXXo;;;;;;;;;;;;;",
";;;;;;OXXXO;;;OXXXO;;;OXXXO;;;OXXXO;;;OXXXO;;;OXXXO;;;;;;;;;;;;;",
";;;;;;oXXX$;;;oXXX$;;;oXXX$;;;oXXX$;;;oXXX$;;;oXXX$;;;;;;;;;;;;;",
";;;;;;.XXX%;;;.XXX%;;;.XXX%;;;.XXX%;;;.XXX%;;;.XXX%;;;;;;;;;;;;;",
";;;;;%XXXo;;;%XXXo;;;%XXXo;;;%XXXo;;;%XXXo;;;%XXXo;;;;;;;;;;;;;;",
";;;;; XXXo;;; XXXo;;; XXXo;;; XXXo;;; XXXo;;; XXXo;;;;;;;;;;;;;;",
";;;;;OXXXO;;;OXXXO;;;OXXXO;;;OXXXO;;;OXXXO;;;OXXXO;;;;;;;;;;;;;;",
";;;;;oXXX$;;;oXXX$;;;oXXX$;;;oXXX$;;;oXXX$;;;oXXX$;;;;;;;;;;;;;;",
";;;;;.XXX%;;;.XXX%;;;.XXX%;;;.XXX%;;;.XXX%;;;.XXX%;;;;;;;;;;;;;;",
";;;;%XXXo;;;%XXXo;;;%XXXo;;;%XXXo;;;%XXXo;;;%XXXo;;;;;;;;;;;;;;;",
";;;;OXXXo;;; XXXo;;; XXXo;;; XXXo;;; XXXo;;; XXXo;;;;;;;;;;;;;;;",
";;;;OXXXO;;;OXXXO;;;OXXXO;;;OXXXO;;;OXXXO;;;OXXXO;;;;;;;;;;;;;;;",
";;;;oXXX$;;;oXXX$;;;oXXX$;;;oXXX$;;;oXXX$;;;oXXX$;;;;;;;;;;;;;;;",
";;;;.XXX;;;;.XXX;;;;.XXX;;;;.XXX;;;;.XXX%;;;.XXX;;;;;;;;;;;;;;;;",
";;;;oXXo;;;;oXXo;;;;oXXo;;;;oXXo;;;;oXXo;;;;oXXo;;;;;;;;;;;;;;;;",
";;;;%OO%;;;;%OO%;;;;%OO%;;;;%OO%;;;;%OO%;;;;%oo%;;;;;;;;;;;;;;;;"
};
