/* XPM */
static const char *weather_fog[] = {
/* columns rows colors chars-per-pixel */
"64 64 6 1 ",
"  c #A7A8A9",
". c #A2B0C2",
"X c #A1B2C7",
"o c #A1B2C8",
"O c #A0B3CA",
"+ c #A1B3CC",
/* pixels */
"                                                                ",
"                                                                ",
"                                                                ",
"                                                                ",
"           .ooo               XooX              .o+o            ",
"         .oo++++o           oooo+++X           o++++oo          ",
"        Xo++++++oo         +ooooooooo        .oooo++++o         ",
"       .++++++++ooo       +++ooooooooX      .ooooo++++oo        ",
"      .++++++oo+++++     o++++++++ooooX     oooooo++ooooo       ",
"      ++++++++oo+++oo   X+++++++++oo+++    +oooooo++o+oooo      ",
"     +oooo+o++++++oooX .+oo+oo+o++++++++  ++o++o++++++++++o     ",
"    oooooooooo++++ooooo+ooo+oooo+++++++++o+++++++++++++++++X    ",
"  .o++o+o+++oX++++oo++++++++oo+o+oo+++oo++++++++++oooo++++o+o   ",
" ooo++o+++++  o+++oo++++++++ooo  o+++oo+++++++++o. Xoo++++oo++. ",
" ooo+++++++.   o+ooo++oo+o++++    o+++++o+++++ooX   ooo+o+oo+++ ",
"Xooo++++++o     +ooo+ooooo+++     X+++ooo+++++oo     oo+o+oo+++ ",
"o+++oooooo       +++ooo+++++.      Xoo++++++ooo       oo++++ooo ",
" +++ooooo         ++oooo+++.        Xooo++++oo         o++++ooo ",
" o++oooX           +oooo++           .oooo++o           o+++o+  ",
"   oo.               XoX.              .ooX               XoX   ",
"                                                                ",
"                                                                ",
"                                                                ",
"                                                                ",
"           .o+X               Xoo.              .XoX            ",
"         .++o+o+o           oo++++oX           +oooo++          ",
"        X+oooo++++         o+o++++++o        .++oooo+++         ",
"       .++oooo++++o       oo++++++++oo      .+++oooo++++        ",
"       ooooo+ooo+oo+     o++++o+o+++++X     ++++++++++++o       ",
"      ooo++++ooo++++o   X+++++oooo+++++    o++++o+++++++oo      ",
"     +oo+++++++++o+++X .oo++o+oooo++++++  oo++oooo++++++ooX     ",
"    oooo++++oo+++o+++ooooo+++++oo++++++++oooooooooo+++ooooo.    ",
"   ooooooo+++ooo++++oo+++++ooooo++++oooo+++oooooooXoo+++++++o   ",
" ooo++oooo++  oo++++oo+++++oooo  ++++++o++o+ooooo  X+o++++oo++. ",
" +oo++++o++X   o++++o++ooo++o+    ++++++++++++o+X   o+++oooo+++ ",
"oooo++++++o     ++++++ooooo+o     X+ooo++++++++o     +++oooo+++ ",
"o+++++++oo       +++oooooo++.      Xoo+++o++++o       oo+++++++ ",
" +++++++o         ++oooo+++.        Xoo++o+++o         o++++++o ",
" o+++++X           +oooo++           Xo+++++o           o++++o. ",
"   ooX               XoX               .ooX               Xoo   ",
"                                                                ",
"                                                                ",
"                                                                ",
"                                                                ",
"           .XoX               Xoo.              .ooX            ",
"         .++ooooo           o+++oooX           o+++++o          ",
"        X+++oooooo         o++ooooooX        .oo++++++o         ",
"       .o++++oooooo       oo++oooooooo      .ooo++++++oo        ",
"       o++++++oo+++o     o++++oo+++oooX     ++++oo++++++o       ",
"      oo++++++oo++++o   X+++++oo++++ooo    +++++oo++++++oo      ",
"     +oo++oo+ooo+++++X .oooo++oo++++++o+  o+++++ooo+ooooooo     ",
"    ooooooo+oooo++++++oooooo++++o++++++++o++++++oo++ooooooo.    ",
"  .o++++++oooXooo++++ooo+++o++oo++++++++ooo++++++oooo+++++++o   ",
" ooo++++++oo  Xo++++oooo++++o+o  +++++++oo+++++++. Xo+++++++++. ",
" +oo+++++++.   ooo++++oo++++o+    ++oooooo++++ooX   o++++++++++ ",
"o++o++++++o     oo+++oo+++++o     X+ooooooo+++oo     ++++++++++ ",
"o+++ooo++o       +++ooo+++++       ooooo++ooooo       ooooooooo ",
" +++ooooo         ++oooo+++.        oooo++o+oo         o+o+ooo+ ",
" o++oooX           +oooo++           Xoo++++X           o+++oo  ",
"  .oo.               XoX               .ooX               X+X   ",
"                                                                ",
"                                                                ",
"                                                                ",
"                                                                "
};
