/* XPM */
static const char *weather_clear[] = {
/* columns rows colors chars-per-pixel */
"24 24 25 1 ",
"  c #F5D32D",
". c #F5D32E",
"X c #F6D42C",
"o c #F3D230",
"O c #F3D231",
"+ c #F3D132",
"@ c #F2D133",
"# c #F3D232",
"$ c #F4D230",
"% c #F1D134",
"& c #F0D035",
"* c #F1D035",
"= c #DFC651",
"- c #DDC554",
"; c #DCC555",
": c #DCC456",
"> c #DCC556",
", c #E6CA45",
"< c #E6CA46",
"1 c #EACC40",
"2 c #E1C74E",
"3 c #E3C94A",
"4 c #E3C94B",
"5 c #E4C949",
"6 c None",
/* pixels */
"66666666661OO66666666666",
"6666666666...66666666666",
"6666666666...66666666666",
"6666.;6666%$$66666;.6666",
"666..O;6666%%6666;O..666",
"666;OX%6666666663%XO;666",
"6666;%3666=OO=6663%;6666",
"666663662O....O,66366666",
"6666666,........,6666666",
"6666666O........O6666666",
"1..%66=..........=66%..1",
"O..$66O..........O66$..O",
"O..$66O..........O66$..O",
"666%66=..........=66%666",
"6666666O........O6666666",
"6666666,........,6666666",
"66666366,O....O,66366666",
"6666;%36665OO=6663%;6666",
"666;OX%6666666663%XO;666",
"666..O;6666%%6666;O..666",
"6666.;6666%$$66666;.6666",
"6666666666...66666666666",
"6666666666...66666666666",
"66666666661OO66666666666"
};
