/* XPM */
static const char *weather_showers[] = {
/* columns rows colors chars-per-pixel */
"24 24 17 1 ",
"  c #3F87DF",
". c #3B86E1",
"X c #5D90CF",
"o c #4D8BD7",
"O c #4789DB",
"+ c #478ADA",
"@ c #4288DE",
"# c #4A8AD9",
"$ c #4B8AD9",
"% c #498ADA",
"& c #4C8BD8",
"* c #508CD6",
"= c #5B90D0",
"- c #6793C9",
"; c #6693CA",
": c #6893C9",
"> c None",
/* pixels */
">>>>>>>>>>>>>>>>>>>>>>>>",
">>>>>>>>>>>>>>>>>>>>>>>>",
">>>>>>>>>>>>>>>>>>>>>>>>",
">>>>>>>>>>>>>>>>>>>>>>>>",
">>>>>>>>>>>>>>>>>>>>>>>>",
">>>>>>>>>>>>>>>>>>>>>>>>",
">>>>>>>>>>>>>>>>>>>>>>>>",
">>>>>>>>>>>>>>>>>>>>>>>>",
">>>>>>>>>>>>>>>>>>>>>>>>",
">>>>>>>>>>>>>>>>>>>>>>>>",
">>>>>>>>>>>>>>>>>>>>>>>>",
">>>>>>>>>>>>>>>>>>>>>>>>",
">>>>>>>>>>>>>>>>>>>>>>>>",
">>>>>>>>>>>>>>>>>>>>>>>>",
">>>>>>>>>>>>>>>>>>>>>>>>",
">>>%>>%>>%>>%>>%>>%>>>>>",
">>>@*> O>@*>@*> O> O>>>>",
">>:%;:%;:%;:%;:%;:%>>>>>",
">>%%>O%>O%>O%>O%>O%>>>>>",
">>.@>.@>.@>.@>.@>.@>>>>>",
">>%&>%&>%&>%&>%&>%o>>>>>",
">>%;;%;;%;;%;;%:;%;>>>>>",
">O >O >O >O >O >O >>>>>>",
">X=>X=>X=>X=>X=>X=>>>>>>"
};
