/* XPM */
static const char *weather_storm[] = {
/* columns rows colors chars-per-pixel */
"24 24 48 1 ",
"  c #5D5B63",
". c #5D5B64",
"X c #5E5C64",
"o c #5F5D65",
"O c #605E66",
"+ c #605F66",
"@ c #615F67",
"# c #626068",
"$ c #626168",
"% c #636169",
"& c #646269",
"* c #64626A",
"= c #65636A",
"- c #66656C",
"; c #67666C",
": c #67666D",
"> c #69676E",
", c #69686E",
"< c #69686F",
"1 c #6A696F",
"2 c #6B6A70",
"3 c #6D6C72",
"4 c #717075",
"5 c #717076",
"6 c #727177",
"7 c #737278",
"8 c #747378",
"9 c #75747A",
"0 c #76757A",
"q c #78777C",
"w c #E4DD7B",
"e c #F3EC6F",
"r c #F5ED6E",
"t c #F4EC6F",
"y c #EDE673",
"u c #EEE773",
"i c #E9E276",
"p c #EBE475",
"a c #EBE575",
"s c #ECE574",
"d c #E6E078",
"f c #E7E178",
"g c #F0E971",
"h c #F3EB70",
"j c #F0E972",
"k c #7D7C81",
"l c #DCD780",
"z c None",
/* pixels */
"zzzzzzzzzzzzz>>-zzzzzzzz",
"zzzzzzzzzzz6+XX.,zzzzzzz",
"zzzzzzzzzzz+XXXX.-zzzzzz",
"zzzzzzz->,&XXXXXX+zzzzzz",
"zzzzzz&XXXXXXXXXX+zzzzzz",
"zzzzz#XXXXXXXXXXXX&7zzzz",
"zzzzz#XXXXXXXXXXXX.+zzzz",
"zz0z>+XXXXXXXXXXXXXX&zzz",
"z2&#+XXXXXX+X+XXXXXXXzzz",
"qX.XXXXXXX&0zz6XXXXX+-8z",
">XXXXXXXX 3zzzz+XXXXXXX8",
"6XXXXXXXXXzzgzzXXXXXXXX,",
"z++XXXXXXXzzrzzXXXXXXX#k",
"zz&zzzXzz.zzrrzzXzzzzzzz",
"zzzzzzzzzzzzrrzzzzzzzzzz",
"zzzzzzzzrrrrrrzzzzzzzzzz",
"zzzzzgzrrrrrrrzzzzzzzzzz",
"zzzzserrrzzzyyzzzzzzzzzz",
"zzzsszzrrzzzzpszzzzzzzzz",
"zzsszzzrrzzzzzsyrrrzzzzz",
"zpszzzzrrzzzzzzrrrrgdzzz",
"zdzzzzzrrzzzzzzrrzzwgslz",
"zzzzzzzsyzzzzzzyyzzzzgiz",
"zzzzzzzzzzzzzzzzzzzzzzzz"
};
