/* XPM */
static const char *weather_overcast[] = {
/* columns rows colors chars-per-pixel */
"24 24 19 1 ",
"  c #C7C6C4",
". c #CBCBC8",
"X c #D1D0CE",
"o c #D6D5D2",
"O c #D7D6D4",
"+ c #D8D7D4",
"@ c #D8D7D5",
"# c #D9D8D5",
"$ c #D9D8D6",
"% c #DAD9D6",
"& c #DAD9D7",
"* c #DBDAD7",
"= c #DBDAD8",
"- c #DCDBD8",
"; c #DCDBD9",
": c #DCDCD9",
"> c #DDDCD9",
", c #DEDDDA",
"< c None",
/* pixels */
"<<<<<<<<<<<<<<<<<<<<<<<<",
"<<<<<<<<<<<<<<<<<<<<<<<<",
"<<<<<<<<<<<<<<<<<<<<<<<<",
"<<<<<<<<<<<<<*=*<<<<<<<<",
"<<<<<<<<<<<*,,,,;<<<<<<<",
"<<<<<<<<<<<;,,,,,*<<<<<<",
"<<<<<<<****,,,,,,*<<<<<<",
"<<<<<<*,,,,,,,,,,;<<<<<<",
"<<<<<=,,,,,,,,,,,,,X<<<<",
"<<<<<;,,,,,,,,,,,,,;<<<<",
"<<*<*,,,,,,,,,,,,,,,*<<<",
"<*;;,,,,,,,,,,,,,,,,=<<<",
"*,,,,,,,,=@<<<O,,,,,;**<",
"=,,,,,,,*<<<*<<<<<;;,,,*",
"*,,,,,,,<<*;,;* <<<.@,,*",
"<=,,,,,*<<,,,,,**;@<o=;@",
"<<*<<,,<<*,,,,,,,,,*<<<<",
"<<<<<<<<<=,,,,,,,,,*<<<<",
"<<<<<<<**,,,,,,,,,,,*O<<",
"<<<<<<*,,,,,,,,,,,,,,;<<",
"<<<<<<*,,,,,,,,,,,,,,;<<",
"<<<<<<O*;,,,,,,,,,,,,*<<",
"<<<<<<<<<<<<<<<<<<<<*<<<",
"<<<<<<<<<<<<<<<<<<<<<<<<"
};
