/* XPM */
static const char *weather_few_clouds[] = {
/* columns rows colors chars-per-pixel */
"24 24 44 1 ",
"  c #F5D32D",
". c #F6D32D",
"X c #F5D32E",
"o c #F4D22F",
"O c #F6D42C",
"+ c #F6D42D",
"@ c #EFCF38",
"# c #EECF39",
"$ c #EDCE3B",
"% c #EACD3E",
"& c #EACD3F",
"* c #ECCE3C",
"= c #EFD037",
"- c #F3D230",
"; c #F3D231",
": c #F2D132",
"> c #F2D133",
", c #F2D232",
"< c #F4D230",
"1 c #F0D035",
"2 c #F0D036",
"3 c #CFBE68",
"4 c #CEBD6A",
"5 c #C5B776",
"6 c #DBC456",
"7 c #DCC554",
"8 c #DDC554",
"9 c #D6C25D",
"0 c #D5C15F",
"q c #D9C359",
"w c #DAC359",
"e c #DAC458",
"r c #E5CA46",
"t c #E5CA47",
"y c #E8CB43",
"u c #E9CC40",
"i c #E9CC41",
"p c #E0C74E",
"a c #D5D5D2",
"s c #D6D5D2",
"d c #DCDBD8",
"f c #DCDBD9",
"g c #DDDCDA",
"h c None",
/* pixels */
"hhhhhhhhhhhhhhhhhhhhhhhh",
"hhhhhhhhhhXhhhhhhhhhhhhh",
"hhhhhhhhh-X-hhhhhhhhhhhh",
"hhhhhhhhh-X-hhhhhhhhhhhh",
"hhh7t4hhhhhhhhh4tphhhhhh",
"hhe-OuhhhhhhhhhuO-ehhhhh",
"hh4u#0hhw%X%whh0#u4hhhhh",
"hhhhhht#XXXXXuwhhhhhhhhh",
"hhhhh62XXXXXXX#4hhhhhhhh",
"hhhhh#XXXXXXXXX*hhhhhhhh",
"%Xhhh2XXXXXXXXX*hhhXhhhh",
"-X-hhXXXXXXXXXXXhh-X-hhh",
"-X-hhXXXXXXXOXXXhh-X-hhh",
"hXhhh2XXXXX<tt-0hhhXhhhh",
"hhhhh#XXXX=hhhhhhhhhhhhh",
"hhhhh62XX-hhhddghhhhhhhh",
"hhhhhht#<yhdddddaahhhhhh",
"hh4u#0hh75hddddddddddhhh",
"hhe-Ouhhhhddddddddddddhh",
"hhh7t4hhhhddddddddddddhh",
"hhhhhhhhdddddddddddddddd",
"hhhhhhhddddddddddddddddd",
"hhhhhhhhdddddddddddddddd",
"hhhhhhhhdddddddddddddddd"
};
