/* XPM */
static const char *weather_snow[] = {
/* columns rows colors chars-per-pixel */
"24 24 31 1 ",
"  c #9FB7D3",
". c #9DBADB",
"X c #9DBADD",
"o c #A0B5CD",
"O c #9CBBE0",
"+ c #9CBBE1",
"@ c #9CBCE1",
"# c #9CBCE2",
"$ c #9BBDE5",
"% c #9BBDE6",
"& c #9BBDE7",
"* c #9BBEE7",
"= c #9CBCE4",
"- c #9CBDE5",
"; c #9BBEE8",
": c #9BBEE9",
"> c #9ABEEA",
", c #9BBEEA",
"< c #9ABFEA",
"1 c #9ABFEB",
"2 c #9ABFEC",
"3 c #9ABFED",
"4 c #9AC0ED",
"5 c #99C0EF",
"6 c #9AC0EE",
"7 c #9AC0EF",
"8 c #99C0F0",
"9 c #99C1F0",
"0 c #99C1F1",
"q c #99C1F2",
"w c None",
/* pixels */
"wwwwwwwwwwwwwwwwwwwwwwww",
"wwwwwwwwww,,wwwwwwwwwwww",
"wwwwwwwwww00wwwwwwwwwwww",
"wwwwwwww6,002,6wwwwwwwww",
"wwwwwwwww@00,@wwwwwwwwww",
"wwww26wwww00wwww66wwwwww",
"ww,w,0wwww00wwww66w,,www",
"ww@,,0wwww00wwww66,$@www",
"wwwX00$www00wwww60, wwww",
"ww=,$$$,ww00ww,2==$,wwww",
"ww@@www$,$60,,,+www@.www",
"wwwwwwwww$006,wwwwwwwwww",
"wwwwwwwww,006,wwwwwwwwww",
"ww@@www$2$60,,,+www@.www",
"ww=,$$,2ww00ww,2$=$,wwww",
"wwwX06,www00wwww60, wwww",
"ww+,,0wwww00wwww66,$@www",
"ww,w,0wwww00wwww66w,,www",
"wwww,6wwww00wwww66wwwwww",
"wwwwwwwww@00,+wwwwwwwwww",
"wwwwwwww,2006,,wwwwwwwww",
"wwwwwwwwow00wwowwwwwwwww",
"wwwwwwwwww,,wwwwwwwwwwww",
"wwwwwwwwwwwwwwwwwwwwwwww"
};
